X: 40276
T: Tobin's Favourite
R: jig
M: 6/8
K: Dmajor
F|:DFA dcd|ecA cde|f2.f gfg|ecA GFE|
DFA dcd|ecA cde|(3(fga) f gec|edc d3:|
dfa agf|(3(efg) e efg|fdf gfg|ecA GFE|
DFA dcd|ecA cde|(3(fga) f gec|edc d3:|

